X:3023
T:Polska efter Lars Orre
B:EÖ nr 414
S:efter Lars Orre
R:Polska
O:Rot, Älvdalens sn, Dalarna
Z:Nils L
M:3/4
L:1/8
K:G
GB dg bg | dB ce/c/ Bd/B/ | Ag fe df | af/a/ ge/g/ fd |
GB dg bg | dB ce/c/ Bd/B/ | A>g fe de/f/ | g2 [gB]2 z2 ::
g>e ce (3efe | dB GB (3ded | cA DF AF | GG Bd g2 |
g>e ce ce | dB GB GB | AF DF AF | G2 [GG,]2 z2 :|
(:musicend:)
(:music:)
